X:1
T:Title
%%score { ( 1 3 ) | ( 2 4 ) }
L:1/8
Q:1/4=116
M:2/2
K:C
V:1 treble nm="Grand Piano"
V:3 treble 
V:2 bass 
V:4 bass 
V:1
 E4 E2 E2 | [EG]4 [EG]4 | [Ec]4 [Ec]2 [Ec]2 | [DB]8 | [Ee]4 [Ed]2 [Ec]2 | [DEB]4 [CEA]4 | %6
w: R.~Menthal * *||||||
 d4 B2 A2 | [B,G]8 | E4 E2 E2 | [EG]4 [EG]4 | [Ec]4 E2 [_EA]2 | [EG]8 | [CFA]4 [CGB]2 [CAc]2 | %13
w: |||||||
 c4 G4 | B4 c2 d2 | [Ec]8 | [Ee]4 [Ec]2 [G,E]2 | [_B,EG]4 [A,DF]4 | [A,FA]4 [DFB]2 [CFA]2 | %19
w: ||||||
 [CA]4 ^G4 | A4 A2 A2 | [EG]4 [Ec]4 | [Dc]4 [DA]2 [^Fd]2 | d8 | [Ee]4 [Ee]2 [Ee]2 | [Ed]4 [Ed]4 | %26
w: |||||||
 [Ec]4 [EB]2 [EA]2 | [EG]4 F4 | A4 A2 A2 | G4 G4 | [B,FG]4 [CFA]2 [DFB]2 |[M:8/4] [Ec]8 z8 | %32
w: ||||||
[M:4/4] [Fc]8 | [Ec]8 |] %34
w: ||
V:2
 [C,G,C]4 [C,G,C]2 [C,G,C]2 | [C,G,]4 [C,G,]4 | [C,G,]4 [C,G,]2 [C,G,]2 | [G,,G,]8 | %4
 [C,G,]4 [C,^G,]2 [C,A,]2 | C,4 C,4 | [D,B,D]4 [D,G,D]2 [D,^F,C]2 | [G,,G,]8 | %8
 [C,G,C]4 [C,G,C]2 [C,G,C]2 | [C,G,]4 [C,G,]4 | [C,G,]4 [C,G,]2 [C,^F,]2 | z4 C4 | F,4 F,2 F,2 | %13
 [G,EG]4 [G,CE]4 | [G,DF]4 [G,A,F]2 [G,B,F]2 | [C,C]8 | [C,G,]4 [C,G,]2 C,2 | C,4 D,4 | %18
 D,4 D,2 D,2 | z4 B,4 | [A,CE]4 [F,CF]2 [F,CF]2 | [C,C]4 [C,G,]4 | [A,,^F,]4 [D,F,]2 [D,A,]2 | %23
 G4 z4 | [C,C]4 [C,G,]2 [C,G,]2 | [B,,^G,]4 [B,,G,]4 | [A,,A,]4 [B,,^G,]2 [C,A,]2 | z4 D4 | %28
 [F,A,C]4 [F,B,D]2 [^F,C_E]2 | [G,CE]4 [G,CE]4 | [G,,G,]4 [G,,G,]2 [G,,G,]2 |[M:8/4] [C,C]8 z8 | %32
[M:4/4] [F,A,]8 | [C,G,]8 |] %34
V:3
 x8 | x8 | x8 | x8 | x8 | x8 | x8 | x8 | x8 | x8 | x8 | G,4 z4 | x8 | x8 | x8 | x8 | x8 | x8 | x8 | %19
 E8 | x8 | x8 | x8 | z4 F4 | x8 | x8 | x8 | x8 | x8 | x8 | x8 |[M:8/4] x16 |[M:4/4] x8 | x8 |] %34
V:4
 x8 | x8 | x8 | x8 | x8 | x8 | x8 | x8 | x8 | x8 | x8 | C,8 | x8 | x8 | x8 | x8 | x8 | x8 | x8 | %19
 E,8 | x8 | x8 | x8 | [G,,B,]8 | x8 | x8 | x8 | [D,A,]8 | x8 | x8 | x8 |[M:8/4] x16 |[M:4/4] x8 | %33
 x8 |] %34

